img/logo2.svg

<svg width="352" height="140" viewBox="0 0 352 140" fill="none" xmlns="http://www.w3.org/2000/svg">
<path d="M52.8547 74.0378C49.6307 63.7769 36.2234 22.22 33.583 12.6165H33.3051C30.6212 22.2403 17.2684 63.7824 14.0334 74.0378H52.8547ZM31.7799 8.04092H35.1072L66.0265 105.096H62.8377L53.825 76.9487H13.0621L4.18887 105.096H1L31.7799 8.04092Z" fill="#3391AC"/>
<path d="M52.8547 74.0378C49.6307 63.7769 36.2234 22.22 33.583 12.6165H33.3051C30.6212 22.2403 17.2684 63.7824 14.0334 74.0378H52.8547ZM31.7799 8.04092H35.1072L66.0265 105.096H62.8377L53.825 76.9487H13.0621L4.18887 105.096H1L31.7799 8.04092Z" stroke="#3391AC" stroke-width="1.33333" stroke-miterlimit="10"/>
<path d="M106.091 56.9839C125.086 56.9839 130.493 51.438 130.493 33.8291C130.493 16.498 125.086 10.9531 105.953 10.9531H85.2943V56.9839H106.091ZM82.2439 8.04025H105.953C126.889 8.04025 133.544 14.6959 133.544 33.8291C133.544 50.4668 128.691 57.8158 113.995 59.4795L138.674 105.095H135.208L110.667 59.7574C107.637 60.0473 88.7333 59.8331 85.2943 59.8949V105.095H82.2439V8.04025Z" fill="#3391AC"/>
<path d="M106.091 56.9839C125.086 56.9839 130.493 51.438 130.493 33.8291C130.493 16.498 125.086 10.9531 105.953 10.9531H85.2943V56.9839H106.091ZM82.2439 8.04025H105.953C126.889 8.04025 133.544 14.6959 133.544 33.8291C133.544 50.4668 128.691 57.8158 113.995 59.4795L138.674 105.095H135.208L110.667 59.7574C107.637 60.0473 88.7333 59.8331 85.2943 59.8949V105.095H82.2439V8.04025Z" stroke="#3391AC" stroke-width="1.33333" stroke-miterlimit="10"/>
<path d="M173.193 11.0906H144.632V8.04025H204.944V11.0906H176.521L176.382 105.095H173.193V11.0906Z" fill="#3391AC"/>
<path d="M173.193 11.0906H144.632V8.04025H204.944V11.0906H176.521L176.382 105.095H173.193V11.0906Z" stroke="#3391AC" stroke-width="1.33333" stroke-miterlimit="10"/>
<path d="M307.137 125.886C307.842 126.042 307.842 127.451 307.137 130.115C306.831 130.792 307.177 132.041 306.196 132.229C300.219 132.671 283.968 134.098 275.481 134.813C268.158 135.439 263.597 135.83 261.797 135.987C259.995 136.143 259.172 135.987 259.33 135.518C259.095 134.23 268.54 131.561 272.016 131.172L282.47 129.409C245.978 128.077 212.463 128.665 181.923 131.172C181.329 132.229 179.731 136.638 179.22 137.633C178.359 139.589 176.948 140.333 174.992 139.864C173.425 139.394 172.72 138.375 172.878 136.81C172.751 135.819 174.888 132.729 175.345 131.759C168.062 132.464 162.658 133.128 159.134 133.756C155.202 134.168 154.874 127.505 158.9 127.295C159.212 127.217 163.598 126.826 172.056 126.121C173.542 125.963 175.774 125.807 178.75 125.651C201.912 84.6515 239.027 35.7697 270.254 0.789047C271.506 -0.541351 273.308 -0.18959 275.656 1.84616C277.458 3.33534 278.045 4.39153 277.42 5.01749L276.714 5.25291C265.385 8.48056 201.398 96.3203 185.329 125.181C213.705 123.424 281.602 122.554 307.137 125.886Z" fill="#3391AC"/>
<path d="M266.729 53.6471C265.204 53.8733 264.472 51.4959 265.085 50.3585C265.986 47.4272 275.553 36.4998 278.827 36.4979C280.963 36.2948 282.954 37.9889 283.056 40.1383C283.134 40.923 280.549 43.3687 275.303 47.4798C270.056 51.591 267.199 53.6471 266.729 53.6471ZM235.719 106.975C234.309 106.975 233.017 106.153 231.843 104.508C228.411 99.6752 230.53 94.4423 233.428 88.5326C235.66 84.3042 238.263 80.3509 241.24 76.6699C248.443 68.0561 252.75 63.162 254.161 61.9867C256.392 60.0747 258.702 61.2213 259.446 64.1009C259.837 65.8237 259.602 66.7645 258.742 66.9205C254.945 67.4671 232.265 96.0136 236.306 99.9272C240.083 102.896 260.788 82.0709 266.612 76.4345C267.786 75.2601 268.333 75.3386 268.256 76.6699C268.177 78.8626 267.394 81.0553 265.906 83.248L265.32 83.9515C261.19 88.0184 256.033 93.2227 251.459 97.284C247.829 100.527 246.481 101.674 242.884 104.156C240.434 105.805 238.269 106.901 235.719 106.975Z" fill="#3391AC"/>
<path d="M250.87 112.377C248.176 112.54 246.406 106.36 247.817 104.509C255.14 91.8178 269.446 71.5296 279.296 60.2246C280.393 58.8942 281.802 59.3253 283.525 61.5171C285.011 63.3959 285.443 64.729 284.818 65.5101C284.66 65.7455 284.425 65.8628 284.113 65.8628C282.624 65.8628 278.279 70.3663 271.075 79.3707C264.574 87.7509 261.599 91.9794 262.147 92.0569L262.5 91.8215C272.443 82.8947 281.528 75.3186 289.751 69.0932C297.973 62.8678 303.062 59.7546 305.02 59.7546C306.038 59.7546 306.822 60.2652 307.37 61.2817C308.386 61.9095 308.897 62.6148 308.897 63.3959C308.897 64.1012 306.762 67.2929 302.495 72.9689C298.226 78.6478 294.253 84.3248 290.573 90.0018C286.892 95.6797 285.64 99.1049 286.814 100.279C289.988 103.428 314.267 79.3301 317.355 76.4348C318.214 75.5743 318.723 75.8476 318.881 77.2565C319.193 79.5286 318.528 81.5255 316.885 83.2474C311.235 89.0028 303.527 96.4839 296.916 101.689C293.924 103.99 289.671 107.141 286.344 107.326C283.03 107.539 279.708 103.646 279.767 100.631C279.767 98.1263 281.274 94.5635 284.288 89.9427C287.302 85.3228 290.141 81.2504 292.805 77.7264C295.467 74.2024 296.602 72.2848 296.211 71.9709C292.995 71.3921 261.789 99.0302 260.385 101.689C258.797 103.536 256.502 106.356 255.159 108.149C254.218 109.371 252.966 111.051 251.929 111.907C251.537 112.22 251.184 112.377 250.87 112.377Z" fill="#3391AC"/>
<path d="M334.445 73.0279C338.556 70.0523 340.063 68.0175 338.967 66.9207C337.87 65.8239 335.423 66.8228 331.625 69.9157C327.827 73.0094 323.971 77.0218 320.056 81.9556C325.536 78.98 330.334 76.0054 334.445 73.0279ZM350.479 76.3165C351.183 75.6121 351.536 75.7699 351.536 76.7864C351.457 79.2145 350.085 82.0341 347.425 85.2433L345.076 87.5929C334.447 96.6065 313.927 117.217 306.43 106.505C304.942 104.548 304.239 102.434 304.316 100.162C304.417 88.0924 329.062 59.6723 341.081 59.1673C344.088 59.2449 347.478 62.1891 347.19 65.3927C346.21 74.8088 323.625 86.7417 314.065 90.5298C310.306 96.6379 309.249 100.631 310.894 102.512C314.574 106.74 327.769 98.0089 350.479 76.3165Z" fill="#3391AC"/>
<path d="M205.473 91.2531H203.353V89.1333H205.473V91.2531Z" fill="#3391AC"/>
</svg>

<svg width="352" height="140" fill="none" xmlns="http://www.w3.org/2000/svg"><path d="M52.855 74.038C49.63 63.777 36.223 22.22 33.583 12.617h-.278c-2.684 9.623-16.037 51.165-19.272 61.42h38.822zM31.78 8.04h3.327l30.92 97.055h-3.19l-9.012-28.147H13.062L4.19 105.096H1L31.78 8.041z" fill="#3391AC"/><path d="M52.855 74.038C49.63 63.777 36.223 22.22 33.583 12.617h-.278c-2.684 9.623-16.037 51.165-19.272 61.42h38.822zM31.78 8.04h3.327l30.92 97.055h-3.19l-9.012-28.147H13.062L4.19 105.096H1L31.78 8.041z" stroke="#3391AC" stroke-width="1.333" stroke-miterlimit="10"/><path d="M106.091 56.984c18.995 0 24.402-5.546 24.402-23.155 0-17.331-5.407-22.876-24.54-22.876H85.294v46.03h20.797zM82.244 8.04h23.709c20.936 0 27.591 6.656 27.591 25.79 0 16.637-4.853 23.986-19.549 25.65l24.679 45.615h-3.466l-24.541-45.338c-3.03.29-21.934.076-25.373.138v45.2h-3.05V8.04z" fill="#3391AC"/><path d="M106.091 56.984c18.995 0 24.402-5.546 24.402-23.155 0-17.331-5.407-22.876-24.54-22.876H85.294v46.03h20.797zM82.244 8.04h23.709c20.936 0 27.591 6.656 27.591 25.79 0 16.637-4.853 23.986-19.549 25.65l24.679 45.615h-3.466l-24.541-45.338c-3.03.29-21.934.076-25.373.138v45.2h-3.05V8.04z" stroke="#3391AC" stroke-width="1.333" stroke-miterlimit="10"/><path d="M173.193 11.09h-28.561V8.04h60.312v3.05h-28.423l-.139 94.005h-3.189V11.091z" fill="#3391AC"/><path d="M173.193 11.09h-28.561V8.04h60.312v3.05h-28.423l-.139 94.005h-3.189V11.091z" stroke="#3391AC" stroke-width="1.333" stroke-miterlimit="10"/><path d="M307.137 125.886c.705.156.705 1.565 0 4.229-.306.677.04 1.926-.941 2.114-5.977.442-22.228 1.869-30.715 2.584-7.323.626-11.884 1.017-13.684 1.174-1.802.156-2.625 0-2.467-.469-.235-1.288 9.21-3.957 12.686-4.346l10.454-1.763c-36.492-1.332-70.007-.744-100.547 1.763-.594 1.057-2.192 5.466-2.703 6.461-.861 1.956-2.272 2.7-4.228 2.231-1.567-.47-2.272-1.489-2.114-3.054-.127-.991 2.01-4.081 2.467-5.051-7.283.705-12.687 1.369-16.211 1.997-3.932.412-4.26-6.251-.234-6.461.312-.078 4.698-.469 13.156-1.174 1.486-.158 3.718-.314 6.694-.47 23.162-41 60.277-89.881 91.504-124.862 1.252-1.33 3.054-.979 5.402 1.057 1.802 1.49 2.389 2.546 1.764 3.171l-.706.236C265.385 8.48 201.398 96.32 185.329 125.18c28.376-1.757 96.273-2.627 121.808.705z" fill="#3391AC"/><path d="M266.729 53.647c-1.525.226-2.257-2.151-1.644-3.288.901-2.932 10.468-13.86 13.742-13.861 2.136-.203 4.127 1.49 4.229 3.64.078.785-2.507 3.23-7.753 7.342-5.247 4.111-8.104 6.167-8.574 6.167zm-31.01 53.328c-1.41 0-2.702-.822-3.876-2.467-3.432-4.833-1.313-10.066 1.585-15.975a73.012 73.012 0 017.812-11.863c7.203-8.614 11.51-13.508 12.921-14.683 2.231-1.912 4.541-.766 5.285 2.114.391 1.723.156 2.663-.704 2.82-3.797.546-26.477 29.093-22.436 33.006 3.777 2.969 24.482-17.856 30.306-23.493 1.174-1.174 1.721-1.095 1.644.236-.079 2.193-.862 4.385-2.35 6.578l-.586.703c-4.13 4.067-9.287 9.272-13.861 13.333-3.63 3.243-4.978 4.39-8.575 6.872-2.45 1.649-4.615 2.745-7.165 2.819z" fill="#3391AC"/><path d="M250.87 112.377c-2.694.163-4.464-6.017-3.053-7.868 7.323-12.691 21.629-32.98 31.479-44.284 1.097-1.33 2.506-.9 4.229 1.292 1.486 1.879 1.918 3.212 1.293 3.993-.158.236-.393.353-.705.353-1.489 0-5.834 4.503-13.038 13.508-6.501 8.38-9.476 12.608-8.928 12.686l.353-.236c9.943-8.926 19.028-16.502 27.251-22.728 8.222-6.225 13.311-9.338 15.269-9.338 1.018 0 1.802.51 2.35 1.527 1.016.628 1.527 1.333 1.527 2.114 0 .705-2.135 3.897-6.402 9.573a299.317 299.317 0 00-11.922 17.033c-3.681 5.678-4.933 9.103-3.759 10.277 3.174 3.149 27.453-20.949 30.541-23.844.859-.86 1.368-.587 1.526.822.312 2.272-.353 4.268-1.996 5.99-5.65 5.756-13.358 13.237-19.969 18.442-2.992 2.301-7.245 5.452-10.572 5.637-3.314.213-6.636-3.68-6.577-6.695 0-2.505 1.507-6.067 4.521-10.688 3.014-4.62 5.853-8.693 8.517-12.217 2.662-3.524 3.797-5.441 3.406-5.755-3.216-.579-34.422 27.06-35.826 29.718-1.588 1.847-3.883 4.667-5.226 6.46-.941 1.222-2.193 2.902-3.23 3.758-.392.313-.745.47-1.059.47z" fill="#3391AC"/><path d="M334.445 73.028c4.111-2.976 5.618-5.01 4.522-6.107-1.097-1.097-3.544-.098-7.342 2.995-3.798 3.093-7.654 7.106-11.569 12.04 5.48-2.976 10.278-5.95 14.389-8.928zm16.034 3.288c.704-.704 1.057-.546 1.057.47-.079 2.428-1.451 5.248-4.111 8.457l-2.349 2.35c-10.629 9.013-31.149 29.624-38.646 18.912-1.488-1.957-2.191-4.071-2.114-6.343.101-12.07 24.746-40.49 36.765-40.995 3.007.078 6.397 3.022 6.109 6.226-.98 9.416-23.565 21.349-33.125 25.137-3.759 6.108-4.816 10.101-3.171 11.982 3.68 4.228 16.875-4.503 39.585-26.195zM205.473 91.253h-2.12v-2.12h2.12v2.12z" fill="#3391AC"/></svg>
